src/sprite/menu.svg

<svg width="32" height="32" viewBox="0 0 32 32" fill="none" xmlns="http://www.w3.org/2000/svg">
<g id="menu-24px (5) 1" clip-path="url(#clip0_1402_1616)">
<path id="Vector" d="M4 24H28V21.3333H4V24ZM4 17.3333H28V14.6667H4V17.3333ZM4 8V10.6667H28V8H4Z" fill="#5685FF"/>
</g>
<defs>
<clipPath id="clip0_1402_1616">
<rect width="32" height="32" fill="white"/>
</clipPath>
</defs>
</svg>

<!-- Generated by IcoMoon.io -->
<svg version="1.1" xmlns="http://www.w3.org/2000/svg" width="32" height="32" viewBox="0 0 32 32">
<title>menu</title>
<path fill="#5685ff" d="M4 24h24v-2.667h-24v2.667zM4 17.333h24v-2.667h-24v2.667zM4 8v2.667h24v-2.667h-24z"></path>
</svg>
